src/assets/skills/attention-to-detail.svg

<svg fill="none" height="737" viewBox="0 0 737 737" width="737" xmlns="http://www.w3.org/2000/svg" xmlns:xlink="http://www.w3.org/1999/xlink"><linearGradient id="a" gradientUnits="userSpaceOnUse" x1="368.5" x2="368.5" y1="0" y2="737"><stop offset=".00225706" stop-color="#2b5355"/><stop offset="1"/></linearGradient><clipPath id="b"><rect height="737" rx="368.5" width="737"/></clipPath><g clip-path="url(#b)"><path d="m0 368.5c0-203.517 164.983-368.5 368.5-368.5 203.517 0 368.5 164.983 368.5 368.5 0 203.517-164.983 368.5-368.5 368.5-203.517 0-368.5-164.983-368.5-368.5z" fill="url(#a)"/><g stroke="#d6d6d6"><path d="m725.907 601.812h-511.402c-19.054 0-34.505-15.452-34.505-34.507v-403.798c0-19.054 15.451-34.507 34.505-34.507h511.402c19.054 0 34.506 15.453 34.506 34.507v403.798c0 19.055-15.452 34.507-34.506 34.507z" fill="#fff" stroke-width="4"/><path d="m236 363.114h573m-359.232-100.114h359.232m-573 150.171h536.998m-323.23-100.114h324.579m-538.347 151.019h573m-573 50.905h536.998" stroke-linecap="round" stroke-linejoin="round" stroke-width="5.5"/><path d="m789.056 163.507c0 1.429-.281 2.844-.828 4.165s-1.349 2.521-2.359 3.531c-1.011 1.011-2.211 1.813-3.532 2.36-1.32.547-2.736.828-4.165.828h-598.172s-.001-4.956 0-10.884c0-19.054 15.451-34.507 34.505-34.507h540.046c19.054 0 34.505 15.453 34.505 34.507z" fill="#d6d6d6" stroke-width="4"/></g><path d="m214.574 161.294c1.056.014 2.103-.182 3.082-.577.979-.394 1.87-.979 2.621-1.721.751-.741 1.347-1.624 1.754-2.598s.616-2.019.616-3.074-.209-2.1-.616-3.074-1.003-1.857-1.754-2.598c-.751-.742-1.642-1.327-2.621-1.721-.979-.395-2.026-.591-3.082-.578-2.096.027-4.097.879-5.57 2.371-1.473 1.491-2.299 3.503-2.299 5.6 0 2.096.826 4.108 2.299 5.6s3.474 2.343 5.57 2.37zm33.213 0c2.115 0 4.142-.84 5.637-2.335s2.335-3.522 2.335-5.636c0-2.115-.84-4.142-2.335-5.637s-3.522-2.335-5.637-2.335c-2.114 0-4.141.84-5.636 2.335s-2.335 3.522-2.335 5.637c0 2.114.84 4.141 2.335 5.636s3.522 2.335 5.636 2.335zm31.883 0c1.056.014 2.103-.182 3.082-.577.979-.394 1.87-.979 2.621-1.721.751-.741 1.347-1.624 1.754-2.598s.617-2.019.617-3.074-.21-2.1-.617-3.074-1.003-1.857-1.754-2.598c-.751-.742-1.642-1.327-2.621-1.721-.979-.395-2.026-.591-3.082-.578-2.096.027-4.097.879-5.57 2.371-1.473 1.491-2.299 3.503-2.299 5.6 0 2.096.826 4.108 2.299 5.6s3.474 2.343 5.57 2.37z" fill="#2b5355" fill-opacity=".5"/><path d="m387 262.667h-56.203m.467-46.667h-95.264zm-47.303 112v-112zm74.937 0v-65.333z" stroke="#d6d6d6" stroke-linecap="round" stroke-linejoin="round" stroke-width="8.28"/><path clip-rule="evenodd" d="m408.225 481.5c-57.288-20.852-86.829-84.191-65.98-141.472 20.85-57.282 84.192-86.816 141.48-65.965 57.288 20.852 86.828 84.191 65.98 141.474-9.814 26.963-29.044 47.778-52.625 60.084l11.756 36.185-32.7 10.624-11.637-35.817c-18.28 3.127-37.599 1.684-56.274-5.113zm-41.039-132.557c-15.809 43.436 6.59 91.466 50.031 107.276 43.441 15.812 91.473-6.582 107.282-50.019 15.809-43.435-6.59-91.464-50.031-107.275s-91.473 6.583-107.282 50.018z" fill="#2ccbd3" fill-rule="evenodd"/><path d="m417.217 456.219c-43.441-15.81-65.84-63.84-50.031-107.276 15.809-43.435 63.841-65.829 107.282-50.018s65.84 63.84 50.031 107.275c-15.809 43.437-63.841 65.831-107.282 50.019z" fill="#fff" fill-opacity=".5"/><path d="m505.498 500.523-35.013 11.377c-4.114 1.336-6.365 5.754-5.028 9.868l50.779 156.283c1.336 4.113 5.755 6.364 9.868 5.028l35.014-11.377c4.113-1.336 6.364-5.754 5.028-9.868l-50.78-156.283c-1.336-4.113-5.754-6.364-9.868-5.028z" fill="#2b5355"/><path clip-rule="evenodd" d="m683.149 634.981-12.161-19.067c-14.927-23.4-36.08-42.177-61.086-54.223l-49.873-24.026c-8.04-3.873-16.85-5.884-25.774-5.884h-10.584l4.023 13.349-56.673-13.842c-6.594-1.611-13.085 2.993-13.746 9.748-.192 1.962.14 3.939.96 5.73.821 1.792 2.101 3.334 3.712 4.47l15.666 11.048c-9.815 4.729-11.176 18.156-2.51 24.759l7.961 6.066c-7.557 4.671-7.995 15.502-.839 20.769l11.55 8.5c-.714 3.61-.206 7.356 1.444 10.646 1.649 3.29 4.347 5.937 7.668 7.525l12.347 5.904c1.83.874 3.733 1.584 5.687 2.122l57.106 15.701 63.728 42.724z" fill="#ffc8bc" fill-rule="evenodd"/></g></svg>

<svg width="737" height="737" viewBox="0 0 737 737" fill="none" xmlns="http://www.w3.org/2000/svg">
<g clip-path="url(#clip0_108_105)">
<path d="M0 368.5C0 164.983 164.983 0 368.5 0V0C572.017 0 737 164.983 737 368.5V368.5C737 572.017 572.017 737 368.5 737V737C164.983 737 0 572.017 0 368.5V368.5Z" fill="url(#paint0_linear_108_105)"/>
<path d="M725.907 601.812H214.505C195.451 601.812 180 586.36 180 567.305V163.507C180 144.453 195.451 129 214.505 129H725.907C744.961 129 760.413 144.453 760.413 163.507V567.305C760.413 586.36 744.961 601.812 725.907 601.812Z" fill="white" stroke="#D6D6D6" stroke-width="4"/>
<path d="M236 363.114H809M449.768 263H809M236 413.171H772.998M449.768 313.057H774.347M236 464.076H809M236 514.981H772.998" stroke="#D6D6D6" stroke-width="5.5" stroke-linecap="round" stroke-linejoin="round"/>
<path d="M789.056 163.507C789.056 164.936 788.775 166.351 788.228 167.672C787.681 168.993 786.879 170.193 785.869 171.203C784.858 172.214 783.658 173.016 782.337 173.563C781.017 174.11 779.601 174.391 778.172 174.391H180C180 174.391 179.999 169.435 180 163.507C180 144.453 195.451 129 214.505 129H754.551C773.605 129 789.056 144.453 789.056 163.507Z" fill="#D6D6D6" stroke="#D6D6D6" stroke-width="4"/>
<path d="M214.574 161.294C215.63 161.308 216.677 161.112 217.656 160.717C218.635 160.323 219.526 159.738 220.277 158.996C221.028 158.255 221.624 157.372 222.031 156.398C222.438 155.424 222.647 154.379 222.647 153.324C222.647 152.269 222.438 151.224 222.031 150.25C221.624 149.276 221.028 148.393 220.277 147.652C219.526 146.91 218.635 146.325 217.656 145.931C216.677 145.536 215.63 145.34 214.574 145.353C212.478 145.38 210.477 146.232 209.004 147.724C207.531 149.215 206.705 151.227 206.705 153.324C206.705 155.42 207.531 157.432 209.004 158.924C210.477 160.416 212.478 161.267 214.574 161.294ZM247.787 161.294C249.902 161.294 251.929 160.454 253.424 158.959C254.919 157.464 255.759 155.437 255.759 153.323C255.759 151.208 254.919 149.181 253.424 147.686C251.929 146.191 249.902 145.351 247.787 145.351C245.673 145.351 243.646 146.191 242.151 147.686C240.656 149.181 239.816 151.208 239.816 153.323C239.816 155.437 240.656 157.464 242.151 158.959C243.646 160.454 245.673 161.294 247.787 161.294V161.294ZM279.67 161.294C280.726 161.308 281.773 161.112 282.752 160.717C283.731 160.323 284.622 159.738 285.373 158.996C286.124 158.255 286.72 157.372 287.127 156.398C287.534 155.424 287.744 154.379 287.744 153.324C287.744 152.269 287.534 151.224 287.127 150.25C286.72 149.276 286.124 148.393 285.373 147.652C284.622 146.91 283.731 146.325 282.752 145.931C281.773 145.536 280.726 145.34 279.67 145.353C277.574 145.38 275.573 146.232 274.1 147.724C272.627 149.215 271.801 151.227 271.801 153.324C271.801 155.42 272.627 157.432 274.1 158.924C275.573 160.416 277.574 161.267 279.67 161.294V161.294Z" fill="#2B5355" fill-opacity="0.5"/>
<path d="M387 262.667H330.797M331.264 216H236H331.264ZM283.961 328V216V328ZM358.898 328V262.667V328Z" stroke="#D6D6D6" stroke-width="8.28" stroke-linecap="round" stroke-linejoin="round"/>
<path fill-rule="evenodd" clip-rule="evenodd" d="M408.225 481.5C350.937 460.648 321.396 397.309 342.245 340.028C363.095 282.746 426.437 253.212 483.725 274.063C541.013 294.915 570.553 358.254 549.705 415.537C539.891 442.5 520.661 463.315 497.08 475.621L508.836 511.806L476.136 522.43L464.499 486.613C446.219 489.74 426.9 488.297 408.225 481.5ZM367.186 348.943C351.377 392.379 373.776 440.409 417.217 456.219C460.658 472.031 508.69 449.637 524.499 406.2C540.308 362.765 517.909 314.736 474.468 298.925C431.027 283.114 382.995 305.508 367.186 348.943Z" fill="#2CCBD3"/>
<path d="M417.217 456.219C373.776 440.409 351.377 392.379 367.186 348.943C382.995 305.508 431.027 283.114 474.468 298.925C517.909 314.736 540.308 362.765 524.499 406.2C508.69 449.637 460.658 472.031 417.217 456.219Z" fill="white" fill-opacity="0.5"/>
<path d="M505.498 500.523L470.485 511.9C466.371 513.236 464.12 517.654 465.457 521.768L516.236 678.051C517.572 682.164 521.991 684.415 526.104 683.079L561.118 671.702C565.231 670.366 567.482 665.948 566.146 661.834L515.366 505.551C514.03 501.438 509.612 499.187 505.498 500.523Z" fill="#2B5355"/>
<path fill-rule="evenodd" clip-rule="evenodd" d="M683.149 634.981L670.988 615.914C656.061 592.514 634.908 573.737 609.902 561.691L560.029 537.665C551.989 533.792 543.179 531.781 534.255 531.781H523.671L527.694 545.13L471.021 531.288C464.427 529.677 457.936 534.281 457.275 541.036C457.083 542.998 457.415 544.975 458.235 546.766C459.056 548.558 460.336 550.1 461.947 551.236L477.613 562.284C467.798 567.013 466.437 580.44 475.103 587.043L483.064 593.109C475.507 597.78 475.069 608.611 482.225 613.878L493.775 622.378C493.061 625.988 493.569 629.734 495.219 633.024C496.868 636.314 499.566 638.961 502.887 640.549L515.234 646.453C517.064 647.327 518.967 648.037 520.921 648.575L578.027 664.276L641.755 707L683.149 634.981Z" fill="#FFC8BC"/>
</g>
<defs>
<linearGradient id="paint0_linear_108_105" x1="368.5" y1="0" x2="368.5" y2="737" gradientUnits="userSpaceOnUse">
<stop offset="0.00225706" stop-color="#2B5355"/>
<stop offset="1"/>
</linearGradient>
<clipPath id="clip0_108_105">
<rect width="737" height="737" rx="368.5" fill="white"/>
</clipPath>
</defs>
</svg>
